poi/svg/1908.svg

<?xml version="1.0" encoding="UTF-8" standalone="no"?>
<svg
   xmlns:dc="http://purl.org/dc/elements/1.1/"
   xmlns:cc="http://creativecommons.org/ns#"
   xmlns:rdf="http://www.w3.org/1999/02/22-rdf-syntax-ns#"
   xmlns:svg="http://www.w3.org/2000/svg"
   xmlns="http://www.w3.org/2000/svg"
   xmlns:sodipodi="http://sodipodi.sourceforge.net/DTD/sodipodi-0.dtd"
   xmlns:inkscape="http://www.inkscape.org/namespaces/inkscape"
   inkscape:version="1.0 (4035a4fb49, 2020-05-01)"
   sodipodi:docname="1908.svg"
   id="svg20"
   version="1.2"
   viewBox="0 0 42.519639 42.519639"
   height="14.999999mm"
   width="14.999999mm">
  <metadata
     id="metadata24">
    <rdf:RDF>
      <cc:Work
         rdf:about="">
        <dc:format>image/svg+xml</dc:format>
        <dc:type
           rdf:resource="http://purl.org/dc/dcmitype/StillImage" />
        <dc:title>Qt SVG Document</dc:title>
      </cc:Work>
    </rdf:RDF>
  </metadata>
  <sodipodi:namedview
     inkscape:current-layer="svg20"
     inkscape:window-maximized="0"
     inkscape:window-y="0"
     inkscape:window-x="0"
     inkscape:cy="28.346482"
     inkscape:cx="28.346482"
     inkscape:zoom="5.8410537"
     showgrid="false"
     id="namedview22"
     inkscape:window-height="480"
     inkscape:window-width="1034"
     inkscape:pageshadow="2"
     inkscape:pageopacity="0"
     guidetolerance="10"
     gridtolerance="10"
     objecttolerance="10"
     borderopacity="1"
     bordercolor="#666666"
     pagecolor="#ffffff" />
  <title
     id="title2">Qt SVG Document</title>
  <desc
     id="desc4">Generated with Qt</desc>
  <defs
     id="defs6" />
  <g
     transform="translate(5.25984,5.25984)"
     id="g18"
     stroke-linejoin="bevel"
     stroke-linecap="square"
     fill-rule="evenodd"
     stroke-width="1"
     stroke="#000000"
     fill="none">
    <g
       id="g10"
       font-style="normal"
       font-weight="400"
       font-size="7.8px"
       font-family="'MS Shell Dlg 2'"
       stroke="none"
       fill-opacity="1"
       fill="#a61215">
      <path
         id="path8"
         d="M 37.2598,16 C 37.2598,27.7415 27.7415,37.2598 16,37.2598 4.25851,37.2598 -5.25984,27.7415 -5.25984,16 -5.25984,4.25851 4.25851,-5.25984 16,-5.25984 27.7415,-5.25984 37.2598,4.25851 37.2598,16"
         fill-rule="evenodd"
         vector-effect="non-scaling-stroke" />
    </g>
    <g
       id="g14"
       font-style="normal"
       font-weight="400"
       font-size="7.8px"
       font-family="'MS Shell Dlg 2'"
       transform="translate(16,9.76378)"
       stroke="none"
       fill-opacity="0.94902"
       fill="#ffffff">
      <path
         id="path12"
         d="m 12.5415,6.41943 c 0.084,0.09799 0.126,0.20297 0.126,0.31495 0,0.25195 -0.098,0.37792 -0.294,0.37792 h -0.042 -0.0839 v 5.249 c 0,0.196 -0.091,0.322 -0.273,0.378 L 8.11133,13.915 h -0.04199 -0.042 l -2.6665,-0.4829 -10.09912,2.3726 h -0.04199 -0.14698 l -6.21485,-2.5405 c -0.154,-0.084 -0.2309,-0.21 -0.2309,-0.378 V 6.33545 l -0.336,0.08398 h -0.042 c -0.14,0 -0.2239,-0.05599 -0.2519,-0.16797 -0.098,-0.13997 -0.098,-0.27994 0,-0.41992 l 3.65329,-7.22265 0.04199,-0.042 c 0,0 0.028,-0.02799 0.08399,-0.08398 0.02799,0 0.05599,-0.0105 0.08398,-0.03149 0.028,-0.021 0.05599,-0.0315 0.08399,-0.0315 h 0.04199 L 10.2529,3.71094 c 0.07,0 0.133,0.02799 0.189,0.08398 l 2.0996,2.62451 M -9.12646,8.95996 c 0,-0.08398 -0.028,-0.12598 -0.08399,-0.12598 L -10.5122,8.75 l -0.042,0.04199 c -0.028,0.028 -0.042,0.05599 -0.042,0.08399 v 2.09962 c 0,0.098 0.028,0.147 0.084,0.147 l 1.25976,0.2939 h 0.04199 c 0,0 0.014,-0.014 0.04199,-0.042 0.028,0 0.042,-0.028 0.042,-0.084 V 8.95996 m 3.04443,0.12598 c 0,-0.08399 -0.028,-0.12598 -0.08399,-0.12598 L -8.09766,8.87598 c 0,0 -0.01399,0.01399 -0.04199,0.04199 -0.02799,0 -0.04199,0.02799 -0.04199,0.08398 v 2.54055 c 0,0.084 0.02799,0.126 0.08398,0.126 l 1.88965,0.4409 h 0.04199 c 0,0 0.014,-0.014 0.042,-0.042 0.02799,0 0.04199,-0.028 0.04199,-0.084 V 9.08594 M 0.552734,9.00195 c 0,-0.05599 -0.013997,-0.08398 -0.041992,-0.08398 0,-0.028 -0.034993,-0.04199 -0.10498,-0.04199 L -3.05859,8.95996 c -0.06999,0 -0.10498,0.04199 -0.10498,0.12598 v 2.98146 c 0,0.028 0.02099,0.056 0.06298,0.084 0,0.028 0.014,0.042 0.042,0.042 h 0.04199 l 3.464354,-0.483 c 0.069987,0 0.10498,-0.0419 0.10498,-0.1259 V 9.00195 M 4.41602,8.91797 c 0,-0.05599 -0.014,-0.08399 -0.042,-0.08399 0,-0.02799 -0.02799,-0.04199 -0.08398,-0.04199 L 1.87549,8.83398 c -0.08399,0 -0.12598,0.042 -0.12598,0.12598 v 2.45654 c 0,0.028 0.014,0.056 0.04199,0.084 0.028,0.028 0.05599,0.042 0.08399,0.042 l 2.45654,-0.294 c 0.05599,0 0.08399,-0.042 0.08399,-0.1259 V 8.91797 M 11.4707,6.20947 10.043,4.4458 -7.3208,-0.530273 -4.6543,4.06787 5.36084,5.39063 8.06934,5.74756 11.4707,6.20947 M 10.001,9.61084 c 0,-0.02799 -0.00702,-0.04899 -0.02102,-0.06299 -0.014,-0.014 -0.021,-0.03499 -0.021,-0.06299 -0.02799,0 -0.04199,-0.007 -0.04199,-0.02099 0,-0.014 -0.014,-0.021 -0.04199,-0.021 L 8.93018,9.52686 c -0.05599,0 -0.08399,0.04199 -0.08399,0.12597 v 1.72167 c 0,0.028 0.014,0.056 0.04199,0.084 0,0 0.028,0.014 0.08399,0.042 l 0.94482,-0.168 c 0.05599,0 0.08401,-0.042 0.08401,-0.126 V 9.61084 m 1.5537,-0.12598 c 0,-0.05599 -0.014,-0.09798 -0.042,-0.12597 h -0.042 l -0.7769,0.04199 c -0.0559,0 -0.0839,0.04199 -0.0839,0.12598 v 1.51174 c 0,0.056 0.014,0.098 0.042,0.126 h 0.0419 0.042 l 0.7349,-0.126 c 0.056,0 0.084,-0.049 0.084,-0.147 V 9.48486"
         fill-rule="evenodd"
         vector-effect="none" />
    </g>
    <g
       id="g16"
       font-style="normal"
       font-weight="400"
       font-size="7.8px"
       font-family="'MS Shell Dlg 2'"
       stroke="none"
       fill-opacity="1"
       fill="#a61215" />
  </g>
</svg>

<?xml version="1.0" encoding="UTF-8" standalone="no"?>
<svg width="11.2889mm" height="11.2889mm"
 viewBox="0 0 32 32"
 xmlns="http://www.w3.org/2000/svg" xmlns:xlink="http://www.w3.org/1999/xlink"  version="1.2" baseProfile="tiny">
<title>Qt SVG Document</title>
<desc>Generated with Qt</desc>
<defs>
</defs>
<g fill="none" stroke="black" stroke-width="1" fill-rule="evenodd" stroke-linecap="square" stroke-linejoin="bevel" >

<g fill="#a61215" fill-opacity="1" stroke="none" transform="matrix(1,0,0,1,0,0)"
font-family="MS Shell Dlg 2" font-size="7.8" font-weight="400" font-style="normal" 
>
<path vector-effect="non-scaling-stroke" fill-rule="evenodd" d="M37.2598,16 C37.2598,27.7415 27.7415,37.2598 16,37.2598 C4.25851,37.2598 -5.25984,27.7415 -5.25984,16 C-5.25984,4.25851 4.25851,-5.25984 16,-5.25984 C27.7415,-5.25984 37.2598,4.25851 37.2598,16 "/>
</g>

<g fill="#ffffff" fill-opacity="0.94902" stroke="none" transform="matrix(1,0,0,1,16,9.76378)"
font-family="MS Shell Dlg 2" font-size="7.8" font-weight="400" font-style="normal" 
>
<path vector-effect="none" fill-rule="evenodd" d="M12.5415,6.41943 C12.6255,6.51742 12.6675,6.6224 12.6675,6.73438 C12.6675,6.98633 12.5695,7.1123 12.3735,7.1123 L12.3315,7.1123 L12.2476,7.1123 L12.2476,12.3613 C12.2476,12.5573 12.1566,12.6833 11.9746,12.7393 L8.11133,13.915 L8.06934,13.915 L8.02734,13.915 L5.36084,13.4321 L-4.73828,15.8047 L-4.78027,15.8047 L-4.92725,15.8047 L-11.1421,13.2642 C-11.2961,13.1802 -11.373,13.0542 -11.373,12.8862 L-11.373,6.33545 L-11.709,6.41943 L-11.751,6.41943 C-11.891,6.41943 -11.9749,6.36344 -12.0029,6.25146 C-12.1009,6.11149 -12.1009,5.97152 -12.0029,5.83154 L-8.34961,-1.39111 L-8.30762,-1.43311 C-8.30762,-1.43311 -8.27962,-1.4611 -8.22363,-1.51709 C-8.19564,-1.51709 -8.16764,-1.52759 -8.13965,-1.54858 C-8.11165,-1.56958 -8.08366,-1.58008 -8.05566,-1.58008 L-8.01367,-1.58008 L10.2529,3.71094 C10.3229,3.71094 10.3859,3.73893 10.4419,3.79492 L12.5415,6.41943 M-9.12646,8.95996 C-9.12646,8.87598 -9.15446,8.83398 -9.21045,8.83398 L-10.5122,8.75 L-10.5542,8.79199 C-10.5822,8.81999 -10.5962,8.84798 -10.5962,8.87598 L-10.5962,10.9756 C-10.5962,11.0736 -10.5682,11.1226 -10.5122,11.1226 L-9.25244,11.4165 L-9.21045,11.4165 C-9.21045,11.4165 -9.19645,11.4025 -9.16846,11.3745 C-9.14046,11.3745 -9.12646,11.3465 -9.12646,11.2905 L-9.12646,8.95996 M-6.08203,9.08594 C-6.08203,9.00195 -6.11003,8.95996 -6.16602,8.95996 L-8.09766,8.87598 C-8.09766,8.87598 -8.11165,8.88997 -8.13965,8.91797 C-8.16764,8.91797 -8.18164,8.94596 -8.18164,9.00195 L-8.18164,11.5425 C-8.18164,11.6265 -8.15365,11.6685 -8.09766,11.6685 L-6.20801,12.1094 L-6.16602,12.1094 C-6.16602,12.1094 -6.15202,12.0954 -6.12402,12.0674 C-6.09603,12.0674 -6.08203,12.0394 -6.08203,11.9834 L-6.08203,9.08594 M0.552734,9.00195 C0.552734,8.94596 0.538737,8.91797 0.510742,8.91797 C0.510742,8.88997 0.475749,8.87598 0.405762,8.87598 L-3.05859,8.95996 C-3.12858,8.95996 -3.16357,9.00195 -3.16357,9.08594 L-3.16357,12.0674 C-3.16357,12.0954 -3.14258,12.1234 -3.10059,12.1514 C-3.10059,12.1794 -3.08659,12.1934 -3.05859,12.1934 L-3.0166,12.1934 L0.447754,11.7104 C0.517741,11.7104 0.552734,11.6685 0.552734,11.5845 L0.552734,9.00195 M4.41602,8.91797 C4.41602,8.86198 4.40202,8.83398 4.37402,8.83398 C4.37402,8.80599 4.34603,8.79199 4.29004,8.79199 L1.87549,8.83398 C1.7915,8.83398 1.74951,8.87598 1.74951,8.95996 L1.74951,11.4165 C1.74951,11.4445 1.76351,11.4725 1.7915,11.5005 C1.8195,11.5285 1.84749,11.5425 1.87549,11.5425 L4.33203,11.2485 C4.38802,11.2485 4.41602,11.2065 4.41602,11.1226 L4.41602,8.91797 M11.4707,6.20947 L10.043,4.4458 L-7.3208,-0.530273 L-4.6543,4.06787 L5.36084,5.39063 L8.06934,5.74756 L11.4707,6.20947 M10.001,9.61084 C10.001,9.58285 9.99398,9.56185 9.97998,9.54785 C9.96598,9.53385 9.95898,9.51286 9.95898,9.48486 C9.93099,9.48486 9.91699,9.47786 9.91699,9.46387 C9.91699,9.44987 9.90299,9.44287 9.875,9.44287 L8.93018,9.52686 C8.87419,9.52686 8.84619,9.56885 8.84619,9.65283 L8.84619,11.3745 C8.84619,11.4025 8.86019,11.4305 8.88818,11.4585 C8.88818,11.4585 8.91618,11.4725 8.97217,11.5005 L9.91699,11.3325 C9.97298,11.3325 10.001,11.2905 10.001,11.2065 L10.001,9.61084 M11.5547,9.48486 C11.5547,9.42887 11.5407,9.38688 11.5127,9.35889 L11.4707,9.35889 L10.6938,9.40088 C10.6379,9.40088 10.6099,9.44287 10.6099,9.52686 L10.6099,11.0386 C10.6099,11.0946 10.6239,11.1366 10.6519,11.1646 L10.6938,11.1646 L10.7358,11.1646 L11.4707,11.0386 C11.5267,11.0386 11.5547,10.9896 11.5547,10.8916 L11.5547,9.48486"/>
</g>

<g fill="#a61215" fill-opacity="1" stroke="none" transform="matrix(1,0,0,1,0,0)"
font-family="MS Shell Dlg 2" font-size="7.8" font-weight="400" font-style="normal" 
>
</g>
</g>
</svg>
